public/new/svg12.svg

<svg fill="none" height="12" viewBox="0 0 16 12" width="16" xmlns="http://www.w3.org/2000/svg" xmlns:xlink="http://www.w3.org/1999/xlink"><clipPath id="a"><path d="m.469727 0h15.25v12h-15.25z"/></clipPath><g clip-path="url(#a)"><path d="m12.9037 1.0509c-.9372-.444861-1.9406-.772089-2.98951-.9581599-.01861-.0042775-.03724.0064162-.04758.0235269-.12827.2374-.27309.547518-.37239.791336-1.12959-.175378-2.25298-.175378-3.35775 0-.09931-.248095-.24827-.553936-.3786-.791336-.01035-.0171107-.02896-.0256656-.04758-.0235269-1.04892.1860709-2.0523.5132989-2.9895.9581599-.00827.00428-.01448.01069-.02069.01711-1.903337 2.94077-2.424689 5.80883-2.170219 8.64267.002068.01284.008275.02781.018619.03635 1.2558.95387 2.47435 1.53357 3.66808 1.91637.01861.0063.03931-.0022.05171-.0171.28344-.4.53377-.8192.751-1.2619.01241-.0257 0-.0556-.02482-.0663-.39929-.1561-.77996-.34863-1.14615-.56464-.02896-.01711-.03103-.05989-.00414-.08128.07655-.05989.1531-.12191.22757-.18393.01242-.0107.03104-.01283.04758-.00641 2.40401 1.13566 5.00663 1.13566 7.38167 0 .0166-.00856.0352-.00642.0476.00641.0744.06202.151.12618.2276.18393.0269.02139.0248.06417-.0042.08128-.3662.22029-.7468.40854-1.1461.56464-.0269.0107-.0373.0406-.0248.0684.2213.4427.4717.8619.7489 1.2619.0124.0171.0331.0235.0517.0171 1.1999-.3829 2.4165-.9624 3.6743-1.91632.0103-.00856.0186-.02139.0186-.03422.3062-3.27656-.5131-6.1211-2.1723-8.64267-.002-.01284-.0103-.01925-.0186-.02139zm-7.52443 6.93596c-.72409 0-1.31992-.68654-1.31992-1.53135s.58548-1.53135 1.31992-1.53135c.74065 0 1.33235.69296 1.31993 1.53135 0 .84266-.58549 1.53135-1.31993 1.53135zm4.88043 0c-.72411 0-1.31994-.68654-1.31994-1.53135s.58549-1.53135 1.31994-1.53135c.7406 0 1.3323.69296 1.3199 1.53135 0 .84266-.5793 1.53135-1.3199 1.53135z" fill="#a9aab7"/></g></svg>

<svg width="16" height="12" viewBox="0 0 16 12" fill="none" xmlns="http://www.w3.org/2000/svg">
<g clip-path="url(#clip0_151_14833)">
<path d="M12.9037 1.0509C11.9665 0.606039 10.9631 0.278811 9.91419 0.0927401C9.89558 0.0884626 9.87695 0.0991563 9.86661 0.116267C9.73834 0.353667 9.59352 0.663785 9.49422 0.907603C8.36463 0.732225 7.24124 0.732225 6.13647 0.907603C6.03716 0.659508 5.8882 0.353667 5.75787 0.116267C5.74752 0.0991563 5.72891 0.0906014 5.71029 0.0927401C4.66137 0.278811 3.65799 0.606039 2.72079 1.0509C2.71252 1.05518 2.70631 1.06159 2.7001 1.06801C0.796763 4.00878 0.275411 6.87684 0.529881 9.71068C0.531949 9.72352 0.538156 9.73849 0.5485 9.74703C1.8043 10.7009 3.02285 11.2806 4.21658 11.6634C4.23519 11.6697 4.25589 11.6612 4.26829 11.6463C4.55173 11.2463 4.80206 10.8271 5.01929 10.3844C5.0317 10.3587 5.01929 10.3288 4.99447 10.3181C4.59518 10.162 4.21451 9.96947 3.84832 9.75346C3.81936 9.73635 3.81729 9.69357 3.84418 9.67218C3.92073 9.61229 3.99728 9.55027 4.07175 9.48825C4.08417 9.47755 4.10279 9.47542 4.11933 9.48184C6.52334 10.6175 9.12596 10.6175 11.501 9.48184C11.5176 9.47328 11.5362 9.47542 11.5486 9.48825C11.623 9.55027 11.6996 9.61443 11.7762 9.67218C11.8031 9.69357 11.801 9.73635 11.772 9.75346C11.4058 9.97375 11.0252 10.162 10.6259 10.3181C10.599 10.3288 10.5886 10.3587 10.6011 10.3865C10.8224 10.8292 11.0728 11.2484 11.35 11.6484C11.3624 11.6655 11.3831 11.6719 11.4017 11.6655C12.6016 11.2826 13.8182 10.7031 15.076 9.74918C15.0863 9.74062 15.0946 9.72779 15.0946 9.71496C15.4008 6.4384 14.5815 3.59386 12.9223 1.07229C12.9203 1.05945 12.912 1.05304 12.9037 1.0509ZM5.37927 7.98686C4.65518 7.98686 4.05935 7.30032 4.05935 6.45551C4.05935 5.6107 4.64483 4.92416 5.37927 4.92416C6.11992 4.92416 6.71162 5.61712 6.6992 6.45551C6.6992 7.29817 6.11371 7.98686 5.37927 7.98686ZM10.2597 7.98686C9.53559 7.98686 8.93976 7.30032 8.93976 6.45551C8.93976 5.6107 9.52525 4.92416 10.2597 4.92416C11.0003 4.92416 11.592 5.61712 11.5796 6.45551C11.5796 7.29817 11.0003 7.98686 10.2597 7.98686Z" fill="#A9AAB7"/>
</g>
<defs>
<clipPath id="clip0_151_14833">
<rect width="15.25" height="12" fill="white" transform="translate(0.469727)"/>
</clipPath>
</defs>
</svg>
